Yaru++/mimetypes/scalable/application-msword.svg

<svg height="256" viewBox="0 0 67.73 67.73" width="256" xmlns="http://www.w3.org/2000/svg" xmlns:xlink="http://www.w3.org/1999/xlink"><linearGradient id="a" gradientUnits="userSpaceOnUse" x1="48.50461" x2="41.783234" y1="11.951899" y2="18.809672"><stop offset="0" stop-color="#7ca7e5"/><stop offset="1" stop-color="#8fb4e9"/></linearGradient><filter id="b" color-interpolation-filters="sRGB" height="1.072" width="1.072" x="-.036" y="-.036"><feGaussianBlur stdDeviation=".99"/></filter><radialGradient id="c" cx="179.99261" cy="103.2822" gradientTransform="matrix(1.3687341 -.00000021 .0000002 1.3528551 -121.02851 -70.900578)" gradientUnits="userSpaceOnUse" r="35.068905"><stop offset="0"/><stop offset="1" stop-opacity="0"/></radialGradient><filter id="d" color-interpolation-filters="sRGB" height="1.144" width="1.144" x="-.072" y="-.072"><feGaussianBlur stdDeviation="1.98"/></filter><linearGradient id="e" gradientTransform="matrix(0 -.11988342 .11987999 0 .362762 62.7494)" gradientUnits="userSpaceOnUse" x1="494.34482" x2="-2.206897" y1="169.68051" y2="386.30795"><stop offset="0" stop-color="#2a6dcf"/><stop offset="1" stop-color="#3979d7"/></linearGradient><linearGradient id="f" gradientUnits="userSpaceOnUse" x1="88" x2="488" y1="88" y2="488"><stop offset="0" stop-opacity=".588235"/><stop offset=".88" stop-opacity="0"/><stop offset="1"/></linearGradient><filter id="g" color-interpolation-filters="sRGB" height="1.087725" width="1.105998" x="-.052999" y="-.043863"><feGaussianBlur stdDeviation="8.4801079"/></filter><filter id="h" color-interpolation-filters="sRGB" height="1.021931" width="1.0265" x="-.01325" y="-.010966"><feGaussianBlur stdDeviation="2.120027"/></filter><path d="m189.84323 74c-70.59344 0-78.18921 7.250835-77.84323 77.98706v146.01294 146.01294c-.34598 70.73623 7.24979 77.98706 77.84323 77.98706h196.31354c70.59344 0 76.00668-7.27384 77.84323-77.98706v-146.01294-98l-128-126z" filter="url(#h)" opacity=".1" transform="matrix(.13228516 0 0 .13228516 -4.409451 -6.038882)"/><path d="m189.84323 74c-70.59344 0-78.18921 7.250835-77.84323 77.98706v146.01294 146.01294c-.34598 70.73623 7.24979 77.98706 77.84323 77.98706h196.31354c70.59344 0 77.84323-7.24999 77.84323-77.98706v-146.01294-96l-128-128z" fill="url(#f)" filter="url(#g)" opacity=".3" transform="matrix(.13228516 0 0 .13228516 -4.409451 -6.038882)"/><path d="m20.703991 3.4856497c-9.338465 0-10.343273.959178-10.297505 10.3165313v19.315345 19.315344c-.04577 9.357355.95904 10.316531 10.297505 10.316531h25.969365c9.338465 0 10.297506-.959068 10.297506-10.316531v-19.315344-12.699376l-16.9325-16.9325003z" fill="url(#e)"/><g fill="#fff"><path d="m20.70406 3.4856497c-9.338466 0-10.343342.95934-10.297574 10.3166923v.529141c-.045768-9.3573533.959108-10.3166923 10.297574-10.3166923h19.334302v-.529141z" opacity=".4"/><path d="m34.359071 24.651275c-5.160603.919009-10.324243 2.138387-15.484842 3.040567 0 7.850309-.0034 15.703976 0 23.55765 5.133669.898812 10.270534 2.097818 15.394108 3.033659h1.537611v-29.631873zm-1.996138 9.59803-2.377532 9.980174-1.951479-.153858c-.447721-2.228513-.969285-4.443604-1.369876-6.682218-.393863 2.174657-.905968 4.329206-1.357058 6.490399-.646337-.03366-1.29564-.0741-1.945343-.117858-.558812-2.962378-1.215465-5.904514-1.737251-8.873625.575644-.02693 1.154704-.05032 1.730348-.07052.34673 2.14436.740461 4.278567 1.043434 6.426291.474655-2.201582.959734-4.403215 1.431024-6.6048.639604-.03703 1.27911-.06397 1.918714-.09764.447724 2.272281.905344 4.540852 1.390097 6.803034.380394-2.336243.801302-4.665433 1.208629-6.998308.673268-.02355 1.346451-.06069 2.016348-.101089z" stroke-width=".35276"/><path d="m36.86423 28.884404h10.582815v21.165622h-10.582815v-2.116563h8.466252v-1.058281h-8.466252v-2.116562h8.466252v-1.058282h-8.466252v-2.116559h8.466252v-1.058282h-8.466252v-2.116562h8.466252v-1.058281h-8.466252v-2.112854h8.466252v-1.06199h-8.466252v-2.116563h8.466252v-1.058281h-8.466252z" stroke-width=".35276"/><path d="m33.688674 3.4856497v59.2637513h12.984614c9.338464 0 10.054627-.962123 10.297574-10.316435v-19.31544-12.699376l-16.9325-16.9325003z" opacity=".075"/><path d="m10.406486 33.117526v19.31544c-.04577 9.357354.959109 10.316435 10.297574 10.316435h25.969228c9.338464 0 10.054627-.962123 10.297574-10.316435v-19.31544z" opacity=".075"/><path d="m41.096643 62.749401 15.874219-15.874219v5.948567c-.01384 8.994282-1.006077 9.925652-10.099734 9.925652z" opacity=".075"/></g><path d="m185.33354 74.825228-64-65.9999998.003 24.9985698v1 .53711c0 35.29429 1.62603 39.63197 36.99414 39.45899z" fill="url(#c)" filter="url(#d)" opacity=".1" transform="matrix(.26457031 0 0 .26457031 7.937109 1.150756)"/><path d="m185.33354 74.825228v-2l-64-63.9999998v24.9990938 1 .53711c0 34.463796 4 39.463796 36.99414 39.458996z" filter="url(#b)" opacity=".1" transform="matrix(.26457031 0 0 .26457031 7.937109 1.150756)"/><path d="m56.970086 20.41674-16.930949-16.9309523v6.084601.26457.142103c0 9.3378223.95934 10.4854443 10.316692 10.4396783z" fill="url(#a)"/></svg>

<?xml version="1.0" encoding="UTF-8" standalone="no"?>
<svg
   xmlns:dc="http://purl.org/dc/elements/1.1/"
   xmlns:cc="http://creativecommons.org/ns#"
   xmlns:rdf="http://www.w3.org/1999/02/22-rdf-syntax-ns#"
   xmlns:svg="http://www.w3.org/2000/svg"
   xmlns="http://www.w3.org/2000/svg"
   xmlns:xlink="http://www.w3.org/1999/xlink"
   xmlns:sodipodi="http://sodipodi.sourceforge.net/DTD/sodipodi-0.dtd"
   xmlns:inkscape="http://www.inkscape.org/namespaces/inkscape"
   height="256"
   viewBox="0 0 67.73 67.73"
   width="256"
   version="1.1"
   id="svg41"
   sodipodi:docname="application-msword.svg"
   inkscape:version="0.92.5 (2060ec1f9f, 2020-04-08)">
  <metadata
     id="metadata47">
    <rdf:RDF>
      <cc:Work
         rdf:about="">
        <dc:format>image/svg+xml</dc:format>
        <dc:type
           rdf:resource="http://purl.org/dc/dcmitype/StillImage" />
      </cc:Work>
    </rdf:RDF>
  </metadata>
  <defs
     id="defs45">
    <linearGradient
       gradientTransform="matrix(0.26457031,0,0,0.26457031,-6.5260144,-8.1554451)"
       inkscape:collect="always"
       xlink:href="#linearGradient8385"
       id="linearGradient12719-7"
       x1="208"
       y1="76"
       x2="182.59512"
       y2="101.92042"
       gradientUnits="userSpaceOnUse" />
    <linearGradient
       id="linearGradient8385"
       inkscape:collect="always">
      <stop
         id="stop8381"
         offset="0"
         style="stop-color:#7ca7e5;stop-opacity:1" />
      <stop
         id="stop8383"
         offset="1"
         style="stop-color:#8fb4e9;stop-opacity:1" />
    </linearGradient>
    <filter
       inkscape:collect="always"
       style="color-interpolation-filters:sRGB"
       id="filter8603"
       x="-0.035999998"
       width="1.072"
       y="-0.035999998"
       height="1.072">
      <feGaussianBlur
         inkscape:collect="always"
         stdDeviation="0.99"
         id="feGaussianBlur8605" />
    </filter>
    <radialGradient
       inkscape:collect="always"
       xlink:href="#linearGradient1750"
       id="radialGradient1752"
       cx="179.99261"
       cy="103.2822"
       fx="179.99261"
       fy="103.2822"
       r="35.068905"
       gradientTransform="matrix(1.3687341,-2.0954866e-7,2.0316901e-7,1.3528551,-121.02851,-70.900578)"
       gradientUnits="userSpaceOnUse" />
    <linearGradient
       inkscape:collect="always"
       id="linearGradient1750">
      <stop
         style="stop-color:#000000;stop-opacity:1;"
         offset="0"
         id="stop1746" />
      <stop
         style="stop-color:#000000;stop-opacity:0;"
         offset="1"
         id="stop1748" />
    </linearGradient>
    <filter
       inkscape:collect="always"
       style="color-interpolation-filters:sRGB"
       id="filter2553"
       x="-0.071999997"
       width="1.1440001"
       y="-0.071999997"
       height="1.1440001">
      <feGaussianBlur
         inkscape:collect="always"
         stdDeviation="1.98"
         id="feGaussianBlur2555" />
    </filter>
    <linearGradient
       gradientUnits="userSpaceOnUse"
       y2="386.30795"
       x2="-2.2068965"
       y1="169.68051"
       x1="494.34482"
       id="linearGradient4226"
       xlink:href="#linearGradient4338-3"
       inkscape:collect="always"
       gradientTransform="matrix(0,-0.11988342,0.11987999,0,0.36276171,62.7494)" />
    <linearGradient
       inkscape:collect="always"
       id="linearGradient4338-3">
      <stop
         style="stop-color:#2a6dcf;stop-opacity:1"
         offset="0"
         id="stop4340-0" />
      <stop
         style="stop-color:#3979d7;stop-opacity:1"
         offset="1"
         id="stop4342-7" />
    </linearGradient>
    <linearGradient
       inkscape:collect="always"
       xlink:href="#linearGradient4360"
       id="linearGradient4358"
       x1="88"
       y1="88"
       x2="488"
       y2="488"
       gradientUnits="userSpaceOnUse" />
    <linearGradient
       id="linearGradient4360"
       inkscape:collect="always">
      <stop
         id="stop4362"
         offset="0"
         style="stop-color:#000000;stop-opacity:0.58823532" />
      <stop
         style="stop-color:#000000;stop-opacity:0"
         offset="0.88"
         id="stop4364" />
      <stop
         id="stop4366"
         offset="1"
         style="stop-color:#000000;stop-opacity:1" />
    </linearGradient>
    <filter
       inkscape:collect="always"
       style="color-interpolation-filters:sRGB"
       id="filter4380"
       x="-0.052999184"
       width="1.1059984"
       y="-0.043862626"
       height="1.0877253">
      <feGaussianBlur
         inkscape:collect="always"
         stdDeviation="8.4801079"
         id="feGaussianBlur4382" />
    </filter>
    <filter
       inkscape:collect="always"
       style="color-interpolation-filters:sRGB"
       id="filter4346"
       x="-0.013249796"
       width="1.0264996"
       y="-0.010965657"
       height="1.0219313">
      <feGaussianBlur
         inkscape:collect="always"
         stdDeviation="2.120027"
         id="feGaussianBlur4348" />
    </filter>
  </defs>
  <sodipodi:namedview
     pagecolor="#ffffff"
     bordercolor="#666666"
     borderopacity="1"
     objecttolerance="10"
     gridtolerance="10"
     guidetolerance="10"
     inkscape:pageopacity="0"
     inkscape:pageshadow="2"
     inkscape:window-width="834"
     inkscape:window-height="480"
     id="namedview43"
     showgrid="false"
     inkscape:zoom="0.921875"
     inkscape:cx="128"
     inkscape:cy="128"
     inkscape:window-x="0"
     inkscape:window-y="28"
     inkscape:window-maximized="0"
     inkscape:current-layer="svg41" />
  <linearGradient
     id="a"
     gradientTransform="matrix(0 -.11988932 -.11988589 0 67.016455 292.81288)"
     gradientUnits="userSpaceOnUse"
     x1="529.655"
     x2="-35.31"
     y1="401.584"
     y2="119.093">
    <stop
       offset="0"
       stop-color="#2a6dcf"
       id="stop2" />
    <stop
       offset="1"
       stop-color="#3979d7"
       id="stop4" />
  </linearGradient>
  <linearGradient
     id="b"
     gradientUnits="userSpaceOnUse"
     x1="88"
     x2="488"
     y1="88"
     y2="488">
    <stop
       offset="0"
       stop-opacity=".588235"
       id="stop7" />
    <stop
       offset=".88"
       stop-opacity="0"
       id="stop9" />
    <stop
       offset="1"
       id="stop11" />
  </linearGradient>
  <filter
     id="c"
     color-interpolation-filters="sRGB"
     height="1.022"
     width="1.026"
     x="-.01"
     y="-.01">
    <feGaussianBlur
       stdDeviation="2.12"
       id="feGaussianBlur14" />
  </filter>
  <path
     style="color:#000000;display:inline;overflow:visible;visibility:visible;opacity:0.1;fill:#000000;fill-opacity:1;fill-rule:nonzero;stroke:none;stroke-width:2;marker:none;filter:url(#filter4346);enable-background:accumulate"
     d="M 189.84323,74 C 119.24979,74 111.65402,81.250835 112,151.98706 V 298 444.01294 C 111.65402,514.74917 119.24979,522 189.84323,522 H 386.15677 C 456.75021,522 462.16345,514.72616 464,444.01294 V 298 200 L 336,74 Z"
     id="rect4158-9"
     inkscape:connector-curvature="0"
     sodipodi:nodetypes="scccssscccs"
     transform="matrix(0.13228516,0,0,0.13228516,-4.4094514,-6.0388816)" />
  <path
     sodipodi:nodetypes="scccssscccs"
     inkscape:connector-curvature="0"
     id="path4350"
     d="M 189.84323,74 C 119.24979,74 111.65402,81.250835 112,151.98706 V 298 444.01294 C 111.65402,514.74917 119.24979,522 189.84323,522 H 386.15677 C 456.75021,522 464,514.75001 464,444.01294 V 298 202 L 336,74 Z"
     style="color:#000000;display:inline;overflow:visible;visibility:visible;opacity:0.3;fill:url(#linearGradient4358);fill-opacity:1;fill-rule:nonzero;stroke:none;stroke-width:2;marker:none;filter:url(#filter4380);enable-background:accumulate"
     transform="matrix(0.13228516,0,0,0.13228516,-4.4094514,-6.0388816)" />
  <path
     style="color:#000000;display:inline;overflow:visible;visibility:visible;fill:url(#linearGradient4226);fill-opacity:1;fill-rule:nonzero;stroke:none;stroke-width:0.26457033;marker:none;enable-background:accumulate"
     d="m 20.703991,3.4856497 c -9.338465,0 -10.343273,0.959178 -10.297505,10.3165313 V 33.117526 52.43287 c -0.04577,9.357355 0.95904,10.316531 10.297505,10.316531 h 25.969365 c 9.338465,0 10.297506,-0.959068 10.297506,-10.316531 V 33.117526 20.41815 L 40.038362,3.4856497 Z"
     id="rect4158"
     inkscape:connector-curvature="0"
     sodipodi:nodetypes="scccssscccs" />
  <path
     style="color:#000000;display:inline;overflow:visible;visibility:visible;opacity:0.4;fill:#ffffff;fill-opacity:1;fill-rule:nonzero;stroke:none;stroke-width:0.26457033;marker:none;enable-background:accumulate"
     d="m 20.70406,3.4856497 c -9.338466,0 -10.343342,0.95934 -10.297574,10.3166923 v 0.529141 C 10.360718,4.9741297 11.365594,4.0147907 20.70406,4.0147907 h 19.334302 v -0.529141 z"
     id="path931"
     inkscape:connector-curvature="0"
     sodipodi:nodetypes="sccsccs" />
  <path
     style="display:inline;fill:#ffffff;stroke-width:0.3527604;enable-background:new"
     d="m 34.359071,24.651275 c -5.160603,0.919009 -10.324243,2.138387 -15.484842,3.040567 0,7.850309 -0.0034,15.703976 0,23.55765 5.133669,0.898812 10.270534,2.097818 15.394108,3.033659 h 1.537611 V 24.651278 Z m -1.996138,9.59803 -2.377532,9.980174 -1.951479,-0.153858 c -0.447721,-2.228513 -0.969285,-4.443604 -1.369876,-6.682218 -0.393863,2.174657 -0.905968,4.329206 -1.357058,6.490399 -0.646337,-0.03366 -1.29564,-0.0741 -1.945343,-0.117858 -0.558812,-2.962378 -1.215465,-5.904514 -1.737251,-8.873625 0.575644,-0.02693 1.154704,-0.05032 1.730348,-0.07052 0.34673,2.14436 0.740461,4.278567 1.043434,6.426291 0.474655,-2.201582 0.959734,-4.403215 1.431024,-6.6048 0.639604,-0.03703 1.27911,-0.06397 1.918714,-0.09764 0.447724,2.272281 0.905344,4.540852 1.390097,6.803034 0.380394,-2.336243 0.801302,-4.665433 1.208629,-6.998308 0.673268,-0.02355 1.346451,-0.06069 2.016348,-0.101089 z"
     id="path6"
     inkscape:connector-curvature="0"
     sodipodi:nodetypes="cccccccccccccccccccccc" />
  <path
     sodipodi:nodetypes="ccccccccccccccccccccccccccccc"
     inkscape:connector-curvature="0"
     id="path1316"
     d="M 36.86423,28.884404 H 47.447045 V 50.050026 H 36.86423 v -2.116563 h 8.466252 V 46.875182 H 36.86423 V 44.75862 h 8.466252 V 43.700338 H 36.86423 v -2.116559 h 8.466252 V 40.525497 H 36.86423 v -2.116562 h 8.466252 V 37.350654 H 36.86423 V 35.2378 h 8.466252 V 34.17581 H 36.86423 v -2.116563 h 8.466252 V 31.000966 H 36.86423 Z"
     style="display:inline;fill:#ffffff;stroke-width:0.3527604;enable-background:new" />
  <path
     style="color:#000000;display:inline;overflow:visible;visibility:visible;opacity:0.075;fill:#ffffff;fill-opacity:1;fill-rule:nonzero;stroke:none;stroke-width:0.26457033;marker:none;enable-background:accumulate"
     d="M 33.688674,3.4856497 V 62.749401 h 12.984614 c 9.338464,0 10.054627,-0.962123 10.297574,-10.316435 V 33.117526 20.41815 L 40.038362,3.4856497 Z"
     id="path4231"
     inkscape:connector-curvature="0"
     sodipodi:nodetypes="ccsscccc" />
  <path
     inkscape:connector-curvature="0"
     style="color:#000000;display:inline;overflow:visible;visibility:visible;opacity:0.075;fill:#ffffff;fill-opacity:1;fill-rule:nonzero;stroke:none;stroke-width:0.26457033;marker:none;enable-background:accumulate"
     d="m 10.406486,33.117526 v 19.31544 c -0.04577,9.357354 0.959109,10.316435 10.297574,10.316435 h 25.969228 c 9.338464,0 10.054627,-0.962123 10.297574,-10.316435 v -19.31544 z"
     id="path4255"
     sodipodi:nodetypes="ccssscc" />
  <path
     style="color:#000000;display:inline;overflow:visible;visibility:visible;opacity:0.075;fill:#ffffff;fill-opacity:1;fill-rule:nonzero;stroke:none;stroke-width:2.11656237;stroke-linecap:butt;stroke-linejoin:miter;stroke-miterlimit:4;stroke-dasharray:none;stroke-dashoffset:0;stroke-opacity:1;marker:none;enable-background:accumulate"
     d="M 41.096643,62.749401 56.970862,46.875182 v 5.948567 c -0.01384,8.994282 -1.006077,9.925652 -10.099734,9.925652 z"
     id="path4254"
     inkscape:connector-curvature="0"
     sodipodi:nodetypes="cccsc" />
  <path
     inkscape:connector-curvature="0"
     style="color:#000000;display:inline;overflow:visible;visibility:visible;opacity:0.1;fill:url(#radialGradient1752);fill-opacity:1;fill-rule:nonzero;stroke:none;stroke-width:1;marker:none;filter:url(#filter2553);enable-background:accumulate"
     d="m 185.33354,74.825228 -64,-65.9999998 0.003,24.9985698 v 1 0.53711 c 0,35.29429 1.62603,39.63197 36.99414,39.45899 z"
     id="rect4158-0-3-6"
     sodipodi:nodetypes="ccccscc"
     transform="matrix(0.26457031,0,0,0.26457031,7.9371086,1.1507563)" />
  <path
     inkscape:connector-curvature="0"
     style="color:#000000;display:inline;overflow:visible;visibility:visible;opacity:0.1;fill:#000000;fill-opacity:1;fill-rule:nonzero;stroke:none;stroke-width:1;marker:none;filter:url(#filter8603);enable-background:accumulate"
     d="m 185.33354,74.825228 v -2 l -64,-63.9999998 v 0 24.9990938 1 0.53711 c 0,34.463796 4,39.463796 36.99414,39.458996 z"
     id="rect4158-0-3-2"
     sodipodi:nodetypes="ccccccscc"
     transform="matrix(0.26457031,0,0,0.26457031,7.9371086,1.1507563)" />
  <path
     inkscape:connector-curvature="0"
     style="color:#000000;display:inline;overflow:visible;visibility:visible;fill:url(#linearGradient12719-7);fill-opacity:1;fill-rule:nonzero;stroke:none;stroke-width:0.26457033;marker:none;enable-background:accumulate"
     d="M 56.970086,20.41674 40.039137,3.4857877 v 6.084601 0.26457 0.142103 c 0,9.3378223 0.95934,10.4854443 10.316692,10.4396783 z"
     id="rect4158-0-3-27" />
</svg>
